front/assets/images/icone-contact-site-web.svg

<svg width="16" height="16" viewBox="0 0 16 16" fill="none" xmlns="http://www.w3.org/2000/svg">
<path fill-rule="evenodd" clip-rule="evenodd" d="M7.99992 1.33334C11.6819 1.33334 14.6666 4.318 14.6666 8C14.6666 11.682 11.6819 14.6667 7.99992 14.6667C4.31792 14.6667 1.33325 11.682 1.33325 8C1.33325 4.318 4.31792 1.33334 7.99992 1.33334ZM9.31325 8.66667H6.68659C6.78725 10.2927 7.25192 11.82 7.99992 13.168C8.76813 11.7844 9.21688 10.2463 9.31325 8.66667ZM5.35125 8.66667H2.70792C2.97296 10.7628 4.44922 12.5054 6.47325 13.1113C5.81553 11.7162 5.4345 10.2068 5.35125 8.66667ZM13.2919 8.66667H10.6486C10.5653 10.2068 10.1843 11.7162 9.52659 13.1113C11.5506 12.5054 13.0269 10.7628 13.2919 8.66667ZM7.99992 2.832C7.23171 4.21564 6.78296 5.75368 6.68659 7.33334H9.31259C9.21642 5.75374 8.7679 4.21569 7.99992 2.832ZM6.47325 2.88867C4.44922 3.49463 2.97296 5.23723 2.70792 7.33334H5.35125C5.4345 5.79319 5.81553 4.28379 6.47325 2.88867ZM9.52659 2.88867C10.1843 4.28379 10.5653 5.79319 10.6486 7.33334H13.2919C13.0269 5.23723 11.5506 3.49463 9.52659 2.88867Z" fill="#0D0C21"/>
</svg>

<svg xmlns="http://www.w3.org/2000/svg" width="16" height="16" fill="none"><path fill="#0D0C21" fill-rule="evenodd" d="M8 1.333a6.667 6.667 0 1 1 0 13.333A6.667 6.667 0 0 1 8 1.333m1.313 7.334H6.687A10.6 10.6 0 0 0 8 13.168a10.6 10.6 0 0 0 1.313-4.501m-3.962 0H2.708a5.34 5.34 0 0 0 3.765 4.444 11.9 11.9 0 0 1-1.122-4.444m7.94 0H10.65a11.9 11.9 0 0 1-1.122 4.444 5.34 5.34 0 0 0 3.765-4.444M8 2.832a10.6 10.6 0 0 0-1.313 4.501h2.626A10.6 10.6 0 0 0 8 2.832m-1.527.057a5.34 5.34 0 0 0-3.765 4.444H5.35c.083-1.54.465-3.05 1.122-4.444m3.054 0a11.9 11.9 0 0 1 1.122 4.444h2.643A5.34 5.34 0 0 0 9.527 2.89" clip-rule="evenodd"/></svg>
